dist/images/svg/phone.svg

<svg width="50" height="50" viewBox="0 0 50 50" fill="none" xmlns="http://www.w3.org/2000/svg"><g clip-path="url(#clip0_8_120)"><path d="M38.3368 47.8035C36.8716 49.2101 34.8845 50.0002 32.8125 50.0002L17.1875 50.0002C15.1155 50.0002 13.1284 49.2101 11.6632 47.8035C10.1981 46.397 9.375 44.4894 9.375 42.5002L9.375 7.50025C9.375 5.51112 10.1981 3.60347 11.6632 2.19694C13.1284 0.790422 15.1155 0.000241911 17.1875 0.000242092L32.8125 0.000243458C34.8845 0.000243639 36.8716 0.790424 38.3368 2.19694C39.8019 3.60347 40.625 5.51112 40.625 7.50025L40.625 42.5002C40.625 44.4894 39.8019 46.397 38.3368 47.8035Z" fill="#FDE5D2"/><path d="M30.8682 5.25158C30.2235 5.83763 29.3492 6.16687 28.4375 6.16687L21.5625 6.16687C20.6508 6.16687 19.7765 5.83763 19.1318 5.25158C18.4872 4.66553 18.125 3.87067 18.125 3.04187L18.125 -0.0831301L21.5625 -0.0831298L28.4375 -0.0831292L31.875 -0.0831299L31.875 3.04187C31.875 3.87067 31.5128 4.66553 30.8682 5.25158Z" fill="#21022C"/></g><defs><clipPath id="clip0_8_120"><rect width="50" height="50" fill="white" transform="translate(50 50.0002) rotate(-180)"/></clipPath></defs></svg>

<svg width="50" height="50" fill="none" xmlns="http://www.w3.org/2000/svg"><g clip-path="url(#a)"><path d="M38.337 47.803C36.872 49.21 34.884 50 32.812 50H17.188c-2.072 0-4.06-.79-5.525-2.197-1.465-1.406-2.288-3.314-2.288-5.303v-35c0-1.989.823-3.897 2.288-5.303C13.128.79 15.116 0 17.187 0h15.625c2.073 0 4.06.79 5.525 2.197 1.465 1.406 2.288 3.314 2.288 5.303v35c0 1.99-.823 3.897-2.288 5.303Z" fill="#FDE5D2"/><path d="M30.868 5.252a3.62 3.62 0 0 1-2.43.915h-6.875a3.62 3.62 0 0 1-2.431-.915c-.645-.586-1.007-1.381-1.007-2.21V-.083h13.75v3.125c0 .829-.362 1.624-1.007 2.21Z" fill="#21022C"/></g><defs><clipPath id="a"><path fill="#fff" transform="rotate(-180 25 25)" d="M0 0h50v50H0z"/></clipPath></defs></svg>
